src/root_files/_common/binary-to-deriv/image/fiat-on-ramp.svg

<svg width="48" height="48" viewBox="0 0 48 48" fill="none" xmlns="http://www.w3.org/2000/svg">
<path d="M39 0H9C4.02944 0 0 4.02944 0 9V39C0 43.9706 4.02944 48 9 48H39C43.9706 48 48 43.9706 48 39V9C48 4.02944 43.9706 0 39 0Z" fill="#51A090"/>
<path d="M27.75 25.5C30.6495 25.5 33 23.1495 33 20.25C33 17.3505 30.6495 15 27.75 15C24.8505 15 22.5 17.3505 22.5 20.25C22.5 23.1495 24.8505 25.5 27.75 25.5Z" fill="white"/>
<path d="M20.25 33C23.145 33 25.5 30.645 25.5 27.75C25.5 27.33 25.44 26.925 25.35 26.535C23.565 25.845 22.155 24.435 21.465 22.65C21.075 22.56 20.67 22.5 20.25 22.5C17.355 22.5 15 24.855 15 27.75C15 30.645 17.355 33 20.25 33Z" fill="white"/>
<path d="M22.2602 28.77C22.2602 27.87 21.7502 27.39 20.6702 27.225L20.1602 27.15C19.7252 27.09 19.5452 26.955 19.5452 26.595C19.5452 26.28 19.7852 26.085 20.2952 26.085C20.8352 26.085 21.1652 26.28 21.4202 26.58L22.1702 25.815C21.8402 25.455 21.4052 25.215 20.8802 25.125V24.465H19.6352V25.17C18.8552 25.38 18.4052 25.935 18.4052 26.655C18.4052 27.525 18.9002 28.065 20.0102 28.215L20.5202 28.29C21.0002 28.35 21.1202 28.56 21.1202 28.845C21.1202 29.22 20.8502 29.475 20.2952 29.475C19.7852 29.475 19.3352 29.28 18.9902 28.875L18.2402 29.625C18.5852 30 19.0352 30.3 19.6202 30.405V31.065H20.8652V30.39C21.7502 30.195 22.2452 29.58 22.2452 28.77H22.2602Z" fill="#51A090"/>
<path d="M28.71 20.145V20.1C29.295 20.07 29.775 19.755 29.775 18.87C29.775 17.985 29.205 17.4 28.275 17.4H28.125V16.635H26.76V17.4H25.5V23.115H26.76V23.865H28.125V23.115H28.53C29.37 23.115 30 22.38 30 21.48C30 20.505 29.25 20.145 28.71 20.145ZM26.745 18.45H27.975C28.305 18.45 28.5 18.645 28.5 18.975V19.215C28.5 19.545 28.305 19.74 27.975 19.74H26.745V18.45ZM28.71 21.555C28.71 21.885 28.5 22.065 28.185 22.065H26.76V20.76H28.185C28.515 20.76 28.71 20.955 28.71 21.27V21.555Z" fill="#51A090"/>
</svg>

<svg width="48" height="48" fill="none" xmlns="http://www.w3.org/2000/svg"><path d="M39 0H9a9 9 0 0 0-9 9v30a9 9 0 0 0 9 9h30a9 9 0 0 0 9-9V9a9 9 0 0 0-9-9Z" fill="#51A090"/><path d="M27.75 25.5a5.25 5.25 0 1 0 0-10.5 5.25 5.25 0 0 0 0 10.5Zm-7.5 7.5a5.256 5.256 0 0 0 5.25-5.25c0-.42-.06-.825-.15-1.215a6.788 6.788 0 0 1-3.885-3.885c-.39-.09-.795-.15-1.215-.15A5.256 5.256 0 0 0 15 27.75 5.256 5.256 0 0 0 20.25 33Z" fill="#fff"/><path d="M22.26 28.77c0-.9-.51-1.38-1.59-1.545l-.51-.075c-.435-.06-.615-.195-.615-.555 0-.315.24-.51.75-.51.54 0 .87.195 1.125.495l.75-.765c-.33-.36-.765-.6-1.29-.69v-.66h-1.245v.705c-.78.21-1.23.765-1.23 1.485 0 .87.495 1.41 1.605 1.56l.51.075c.48.06.6.27.6.555 0 .375-.27.63-.825.63-.51 0-.96-.195-1.305-.6l-.75.75c.345.375.795.675 1.38.78v.66h1.245v-.675c.885-.195 1.38-.81 1.38-1.62h.015Zm6.45-8.625V20.1c.585-.03 1.065-.345 1.065-1.23s-.57-1.47-1.5-1.47h-.15v-.765H26.76v.765H25.5v5.715h1.26v.75h1.365v-.75h.405c.84 0 1.47-.735 1.47-1.635 0-.975-.75-1.335-1.29-1.335Zm-1.965-1.695h1.23c.33 0 .525.195.525.525v.24c0 .33-.195.525-.525.525h-1.23v-1.29Zm1.965 3.105c0 .33-.21.51-.525.51H26.76V20.76h1.425c.33 0 .525.195.525.51v.285Z" fill="#51A090"/></svg>
